icons/evolvere-blue-folders-flat-vivid-dark-fallback/apps/64/preferences-system-network-sharing.svg

<?xml version="1.0" encoding="UTF-8" standalone="no"?>
<!-- Created with Inkscape (http://www.inkscape.org/) -->

<svg
   xmlns:dc="http://purl.org/dc/elements/1.1/"
   xmlns:cc="http://creativecommons.org/ns#"
   xmlns:rdf="http://www.w3.org/1999/02/22-rdf-syntax-ns#"
   xmlns:svg="http://www.w3.org/2000/svg"
   xmlns="http://www.w3.org/2000/svg"
   xmlns:sodipodi="http://sodipodi.sourceforge.net/DTD/sodipodi-0.dtd"
   xmlns:inkscape="http://www.inkscape.org/namespaces/inkscape"
   width="64"
   height="64"
   id="svg13094"
   version="1.1"
   inkscape:version="0.48.4 r9939"
   sodipodi:docname="preferences-system-network-sharing.svg">
  <sodipodi:namedview
     id="base"
     pagecolor="#ffffff"
     bordercolor="#666666"
     borderopacity="1.0"
     inkscape:pageopacity="0"
     inkscape:pageshadow="2"
     inkscape:zoom="11.313709"
     inkscape:cx="48.862306"
     inkscape:cy="32.59126"
     inkscape:document-units="px"
     inkscape:current-layer="svg13094"
     showgrid="true"
     inkscape:snap-bbox="true"
     inkscape:bbox-paths="true"
     inkscape:bbox-nodes="true"
     inkscape:snap-bbox-edge-midpoints="true"
     inkscape:snap-bbox-midpoints="true"
     inkscape:object-paths="true"
     inkscape:snap-intersection-paths="true"
     inkscape:object-nodes="true"
     inkscape:snap-smooth-nodes="true"
     inkscape:snap-midpoints="true"
     inkscape:snap-object-midpoints="true"
     inkscape:snap-center="true"
     showguides="true"
     inkscape:guide-bbox="true"
     inkscape:window-width="1920"
     inkscape:window-height="1025"
     inkscape:window-x="-2"
     inkscape:window-y="32"
     inkscape:window-maximized="1"
     inkscape:snap-global="true"
     fit-margin-top="0"
     fit-margin-left="0"
     fit-margin-right="0"
     fit-margin-bottom="0"
     showborder="true"
     inkscape:showpageshadow="false"
     inkscape:snap-page="true">
    <inkscape:grid
       type="xygrid"
       id="grid3075"
       empspacing="5"
       visible="true"
       enabled="true"
       snapvisiblegridlinesonly="true"
       originx="0px"
       originy="18px" />
  </sodipodi:namedview>
  <defs
     id="defs13096" />
  <metadata
     id="metadata13099">
    <rdf:RDF>
      <cc:Work
         rdf:about="">
        <dc:format>image/svg+xml</dc:format>
        <dc:type
           rdf:resource="http://purl.org/dc/dcmitype/StillImage" />
        <dc:title />
      </cc:Work>
    </rdf:RDF>
  </metadata>
  <path
     style="color:#000000;fill:#66b02c;fill-opacity:1;fill-rule:nonzero;stroke:none;stroke-width:2.28571415000000000;marker:none;visibility:visible;display:inline;overflow:visible;enable-background:accumulate"
     d="M 0 4 L 0 34 L 0 62 L 2 64 L 32 64 L 62 64 L 64 62 L 64 34 L 64 4 L 32 4 L 0 4 z "
     id="path3056" />
  <path
     id="path3872"
     d="M 2,0 0,1 0,4 32,4 64,4 64,1 62,0 32,0 2,0 z"
     style="color:#000000;fill:#9cf252;fill-opacity:1;fill-rule:nonzero;stroke:none;stroke-width:2.28571415000000000;marker:none;visibility:visible;display:inline;overflow:visible;enable-background:accumulate"
     inkscape:connector-curvature="0" />
  <path
     d="M 64,6 62,4 64,3 z"
     id="path3028"
     style="fill:#80d03f;fill-opacity:1"
     inkscape:connector-curvature="0" />
  <g
     id="g3043"
     inkscape:export-filename="folder.png"
     inkscape:export-xdpi="90"
     inkscape:export-ydpi="90"
     transform="translate(-0.625,0.082283)" />
  <g
     id="scalable"
     transform="matrix(1.0385892,0,0,1.0385892,1214.7222,1878.8121)"
     inkscape:label="#g3701"
     style="fill:#ffffff" />
  <path
     inkscape:connector-curvature="0"
     style="fill:#d2f5b5;fill-opacity:1;fill-rule:nonzero;stroke:none"
     d="M 51.1875,4 37,18.1875 c -4.337346,-1.372922 -9.202626,-0.953378 -13.34375,1.4375 -1.488411,0.859334 -2.704747,1.894238 -3.8125,3.09375 -4.616315,4.998693 -5.757407,12.505156 -2.53125,18.8125 L 22.21875,36.625 c -0.914478,-3.380545 -0.03492,-7.183828 2.625,-9.84375 3.970096,-3.970096 10.404903,-3.970096 14.375,0 L 62,4 51.1875,4 z m -4.5,22.46875 -4.90625,4.90625 c 0.914478,3.380545 0.09743,7.183828 -2.5625,9.84375 -3.970097,3.970099 -10.404904,3.970099 -14.375,0 L 2,64 12.8125,64 27,49.8125 c 4.337344,1.372922 9.202629,0.953378 13.34375,-1.4375 7.686257,-4.437665 10.335177,-14.090607 6.34375,-21.90625 z M 32,28.90625 c -2.807282,0 -5.09375,2.28647 -5.09375,5.09375 0,2.807282 2.286468,5.09375 5.09375,5.09375 2.80728,0 5.09375,-2.286468 5.09375,-5.09375 0,-2.80728 -2.28647,-5.09375 -5.09375,-5.09375 z"
     id="path3875" />
  <path
     inkscape:connector-curvature="0"
     style="color:#000000;fill:#f3ffe9;fill-opacity:1;fill-rule:nonzero;stroke:none;stroke-width:1;marker:none;visibility:visible;display:inline;overflow:visible;enable-background:accumulate"
     d="M 51,0 62,0 62,4 51,4 z"
     id="path3877" />
  <path
     style="fill:#adf46f;fill-opacity:1;fill-rule:nonzero"
     d="M 0,3 0,6 2,4 z"
     id="path4298"
     inkscape:connector-curvature="0"
     sodipodi:nodetypes="cccc" />
</svg>

<svg xmlns="http://www.w3.org/2000/svg" viewBox="0 0 64 64"><g color="#000"><path d="m0 4v30 28l2 2h30 30l2-2v-28-30h-32-32" fill="#66b02c"/><path d="m2 0l-2 1v3h32 32v-3l-2-1h-30-30" fill="#9cf252"/></g><path d="m64 6l-2-2 2-1z" fill="#80d03f"/><path d="m51.19 4l-14.188 14.188c-4.337-1.373-9.203-.953-13.344 1.438-1.488.859-2.705 1.894-3.813 3.094-4.616 4.999-5.757 12.505-2.531 18.813l4.906-4.906c-.914-3.381-.035-7.184 2.625-9.844 3.97-3.97 10.405-3.97 14.375 0l22.781-22.781h-10.813m-4.5 22.469l-4.906 4.906c.914 3.381.097 7.184-2.563 9.844-3.97 3.97-10.405 3.97-14.375 0l-22.844 22.781h10.813l14.188-14.188c4.337 1.373 9.203.953 13.344-1.438 7.686-4.438 10.335-14.09 6.344-21.906m-14.688 2.438c-2.807 0-5.094 2.286-5.094 5.094 0 2.807 2.286 5.094 5.094 5.094 2.807 0 5.094-2.286 5.094-5.094 0-2.807-2.286-5.094-5.094-5.094" fill="#d2f5b5"/><path d="m51 0h11v4h-11z" fill="#f3ffe9" color="#000"/><path d="m0 3v3l2-2z" fill="#adf46f"/></svg>
